favicon.svg

<?xml version="1.0" encoding="UTF-8"?>
<svg width="514px" height="514px" viewBox="0 0 514 514" version="1.1" xmlns="http://www.w3.org/2000/svg" xmlns:xlink="http://www.w3.org/1999/xlink">
    <title>sparkles-solid</title>
    <defs>
        <filter id="filter-1">
            <feColorMatrix in="SourceGraphic" type="matrix" values="0 0 0 0 1.000000 0 0 0 0 0.800000 0 0 0 0 0.000000 0 0 0 1.000000 0"></feColorMatrix>
        </filter>
    </defs>
    <g id="Page-1" stroke="none" stroke-width="1" fill="none" fill-rule="evenodd">
        <g filter="url(#filter-1)" id="sparkles-solid">
            <g>
                <path d="M325.421389,104.149146 L385.000485,128.996177 L409.840109,188.569059 C411.193396,191.28405 413.966173,193 417,193 C420.033827,193 422.806604,191.28405 424.159891,188.569059 L448.999515,128.996177 L508.578611,104.149146 C511.288383,102.794006 513,100.024479 513,96.9950006 C513,93.9655224 511.288383,91.1959955 508.578611,89.8408554 L448.999515,65.0038232 L424.159891,5.43094144 C422.806604,2.71594974 420.033827,1 417,1 C413.966173,1 411.193396,2.71594974 409.840109,5.43094144 L385.000485,65.0038232 L325.421389,89.8408554 C322.711617,91.1959955 321,93.9655224 321,96.9950006 C321,100.024479 322.711617,102.794006 325.421389,104.149146 Z M508.569059,409.840855 L448.996177,385.003823 L424.159145,325.430941 C422.805998,322.71595 420.03351,321 417,321 C413.96649,321 411.194002,322.71595 409.840855,325.430941 L385.003823,385.003823 L325.430941,409.840855 C322.71595,411.194002 321,413.96649 321,417 C321,420.03351 322.71595,422.805998 325.430941,424.159145 L385.003823,448.996177 L409.840855,508.569059 C411.194002,511.28405 413.96649,513 417,513 C420.03351,513 422.805998,511.28405 424.159145,508.569059 L448.996177,448.996177 L508.569059,424.159145 C511.28405,422.805998 513,420.03351 513,417 C513,413.96649 511.28405,411.194002 508.569059,409.840855 L508.569059,409.840855 Z M385,256.64978 C384.994122,250.587287 381.57558,245.044714 376.161221,242.319236 L263.606791,185.927094 L207.334575,73.1528097 C201.895327,62.2823968 184.147782,62.2823968 178.718533,73.1528097 L122.446318,185.927094 L9.89188773,242.319236 C4.4454407,245.019904 1,250.574661 1,256.654781 C1,262.7349 4.4454407,268.289657 9.89188773,270.990325 L122.446318,327.382467 L178.718533,440.156751 C181.428762,445.576584 186.967712,449 193.026554,449 C199.085396,449 204.624346,445.576584 207.334575,440.156751 L263.606791,327.382467 L376.161221,271.010326 C381.58359,268.278206 385,262.722418 385,256.64978 Z" id="Shape" fill="#000000" fill-rule="nonzero"></path>
            </g>
        </g>
    </g>
</svg>

<svg width="514" height="514" xmlns="http://www.w3.org/2000/svg"><defs><filter id="a"><feColorMatrix in="SourceGraphic" values="0 0 0 0 1.000000 0 0 0 0 0.800000 0 0 0 0 0.000000 0 0 0 1.000000 0"/></filter></defs><g filter="url(#a)" fill="none" fill-rule="evenodd"><path d="m325.421 104.15 59.58 24.846 24.84 59.573a8 8 0 0 0 14.319 0L449 128.996l59.579-24.847a7.999 7.999 0 0 0 0-14.308l-59.58-24.837L424.16 5.43a8 8 0 0 0-14.319 0L385 65.004 325.421 89.84a7.999 7.999 0 0 0 0 14.308zM508.57 409.84l-59.573-24.836-24.837-59.573a7.999 7.999 0 0 0-14.318 0l-24.837 59.573-59.573 24.837a7.999 7.999 0 0 0 0 14.318l59.573 24.837 24.837 59.573a7.999 7.999 0 0 0 14.318 0l24.837-59.573 59.573-24.837a7.999 7.999 0 0 0 0-14.318zM385 256.65a16.06 16.06 0 0 0-8.839-14.33l-112.554-56.393-56.272-112.774c-5.44-10.87-23.187-10.87-28.616 0l-56.273 112.774L9.892 242.32a16 16 0 0 0 0 28.671l112.554 56.392 56.273 112.775a15.997 15.997 0 0 0 28.616 0l56.272-112.775L376.16 271.01A16.077 16.077 0 0 0 385 256.65z" fill="#000" fill-rule="nonzero"/></g></svg>
